!!!OTL: Graserin und Reiter Ich sach mir einen blauen Storchen
!!!ARE: Europa, Mitteleuropa, Deutschland
!!!YOR: 7, S. 150
!!    1575 gedruckt (vor)
!!!SCT: Q0149J
!!!YEM: Copyright 1995, estate of Helmut Schaffrath.
**kern
*ICvox
*Ivox
!! Mixed meters:  6/4; 3/2
*M3/2
*k[b-]
*d:
{4a
=1
2a
4a
4a
4ccn
4b-
=2
*M3/2
2a
4a
4g
4g}
{4g
=3
*M3/2
2dd
2ccn
4b-
4g
=4
*M3/2
2a
4d
2a}
{4a
=5
*M3/2
2a
2b-
4ccn
4a
=6
*M3/2
2.g
2d}
{4e
=7
*M3/2
2fn
2fn
4e
4e
=8
2d
4A
2d}
==
!!!AGN: Ballade, Verfuehrung, Verlassen des Elternhauses
!! Blaustorchenweise. Zusammenhang zur Balladenmelodie angenommen.
!!!ONB: ESAC (Essen Associative Code) Database: BALLADE
!!!AMT: irregular
!!!AIN: vox
!!!EED: Helmut Schaffrath
!!!EEV: 1.0
*-
